# MIDI Connectivity

-- define MIDI "sound" in SuperDirt startup
-- use MIDI "sound" in Tidal patterns
-- notes, channels, CC's

d1 
  $ every 3 (|+ note 2) 
  $ every 2 rev 
  $ note "[c5 d5] [g4 d3]" # s "midi" # midichan 12 # gain 1.1

d2 
  $ ccn "[1 3]*4" 
  # ccv (range 0 127 $ slow 10 sine)
  # s "midi" # midichan 12

hush

-- can control external or internal MIDI devices, depending on OS/software capabilities

-- including DAW stuff (your mileage may vary)

