-- let's make something with MIDI


-- kit 103
do 
  let cpsPat = "<4 2 3 2 1 1 1>"
      plies = "<5 10 5 15>"  
  d1
    $ stack [
      plyWith plies (# gain 0.8) 
        $ note "c3" # midichan 2
    ] # s "midi" # cps cpsPat




hush